X: 34124
T: Reel Du Bonhomme
R: reel
M: 4/4
K: Amixolydian
|:e3c A2ec|efec A2ef|e2d2 c2 (3BcB|B2 A2 A,EAc
e3c A2ec|efec A2ef|e2d2 c2 (3BcB|1 AAce a3B:|2 AAce a3F||
K: Dmaj
|:A2 FA (3BcB AG|FAdf a3f|g2ec AABc|dedB A,DFG|
A2 FA (3BcB AG|FAdf a3a|g2ec AABc|1 dfec d3F:|2 dfec d2 AB/c/||
|:d2c2 B2 A2|F2D2 F2 ED|CEA,C EGFE|DFA,D F2 AB/c/|
d2c2 B2 A2|F2D2 F2 ED|CEA,C EGFE|1 D2 F2 D2 A/B/c:|2 D2 F2 D2 e2||

